shared/images/iconfont/kb-iconfont-text-code.svg

<?xml version="1.0" encoding="UTF-8"?>
<svg width="16px" height="16px" viewBox="0 0 16 16" version="1.1" xmlns="http://www.w3.org/2000/svg" xmlns:xlink="http://www.w3.org/1999/xlink">
    <!-- Generator: sketchtool 49.3 (51167) - http://www.bohemiancoding.com/sketch -->
    <title>DF7DDF1E-4579-46FF-9DB6-37E2F6FA9068</title>
    <desc>Created with sketchtool.</desc>
    <defs></defs>
    <g id="Colors,-icons" stroke="none" stroke-width="1" fill="none" fill-rule="evenodd">
        <g id="Icons-2" transform="translate(-520.000000, -277.000000)">
            <g id="kb-iconfont-text-code" transform="translate(520.000000, 277.000000)">
                <rect id="icon-area" x="0" y="0" width="16" height="16"></rect>
                <path d="M3.5,11 L8.5,11 C9.32842712,11 10,11.6715729 10,12.5 C10,13.3284271 9.32842712,14 8.5,14 L3.5,14 C2.67157288,14 2,13.3284271 2,12.5 C2,11.6715729 2.67157288,11 3.5,11 Z M3.5,3 L12.5,3 C13.3284271,3 14,3.67157288 14,4.5 C14,5.32842712 13.3284271,6 12.5,6 L3.5,6 C2.67157288,6 2,5.32842712 2,4.5 C2,3.67157288 2.67157288,3 3.5,3 Z M3.5,7 C4.32842712,7 5,7.67157288 5,8.5 C5,9.32842712 4.32842712,10 3.5,10 C2.67157288,10 2,9.32842712 2,8.5 C2,7.67157288 2.67157288,7 3.5,7 Z M7.5,7 L11.5,7 C12.3284271,7 13,7.67157288 13,8.5 C13,9.32842712 12.3284271,10 11.5,10 L7.5,10 C6.67157288,10 6,9.32842712 6,8.5 C6,7.67157288 6.67157288,7 7.5,7 Z" id="Combined-Shape" fill="#000000"></path>
            </g>
        </g>
    </g>
</svg>

<svg xmlns="http://www.w3.org/2000/svg" width="16" height="16" viewBox="0 0 16 16">
    <g fill="none" fill-rule="evenodd">
        <path d="M0 0h16v16H0z"/>
        <path fill="#000" d="M3.5 11h5a1.5 1.5 0 0 1 0 3h-5a1.5 1.5 0 0 1 0-3zm0-8h9a1.5 1.5 0 0 1 0 3h-9a1.5 1.5 0 0 1 0-3zm0 4a1.5 1.5 0 1 1 0 3 1.5 1.5 0 0 1 0-3zm4 0h4a1.5 1.5 0 0 1 0 3h-4a1.5 1.5 0 0 1 0-3z"/>
    </g>
</svg>
